X: 397
T: Gechang hezuohua
L: 1/8
M: 2/4
K: F
c> d c F [I:setbarnb 1]| 
G3A | 
F> E D F | 
G4 | 
d> f d c | 
B2A G | 
cF2G | 
F3z | 
F2F G | 
c2c G | 
F2G F | 
E2D C | 
G> A G G/ F/ | 
G2B, A, | 
C3D | 
C2z2 |]

@@@ Tune index: 9271
